packages/kaspersky-hexa-ui-icons/src/iconsSVGs/24/SDSolid.svg

<svg width="24" height="24" viewBox="0 0 24 24" fill="none" xmlns="http://www.w3.org/2000/svg">
<path fill-rule="evenodd" clip-rule="evenodd" d="M4 5C4 3.34315 5.34315 2 7 2H14.7597C15.2154 2 15.6463 2.20713 15.931 2.56296L19.6713 7.23835C19.8841 7.50432 20 7.83478 20 8.17539V19C20 20.6569 18.6569 22 17 22H7C5.34315 22 4 20.6569 4 19V5ZM9 6C9.55228 6 10 6.44772 10 7V9C10 9.55228 9.55228 10 9 10C8.44772 10 8 9.55228 8 9V7C8 6.44772 8.44772 6 9 6ZM13 6C13.5523 6 14 6.44772 14 7V9C14 9.55228 13.5523 10 13 10C12.4477 10 12 9.55228 12 9V7C12 6.44772 12.4477 6 13 6Z" fill="black"/>
</svg>

<svg xmlns="http://www.w3.org/2000/svg" width="24" height="24" fill="none" viewBox="0 0 24 24"><path fill="#000" fill-rule="evenodd" d="M4 5c0-1.6568 1.3431-3 3-3h7.7597a1.5 1.5 0 0 1 1.1713.563l3.7403 4.6754c.2128.266.3287.5964.3287.937V19c0 1.6569-1.3431 3-3 3H7c-1.6569 0-3-1.3431-3-3zm5 1c.5523 0 1 .4477 1 1v2c0 .5523-.4477 1-1 1s-1-.4477-1-1V7c0-.5523.4477-1 1-1m4 0c.5523 0 1 .4477 1 1v2c0 .5523-.4477 1-1 1s-1-.4477-1-1V7c0-.5523.4477-1 1-1"/></svg>
